X:1
T:Title
L:1/8
M:2/4
K:Eb
V:1 treble nm="Grand Piano"
V:1
 z2[Q:1/4=100] C2 | C2 C2 | E2 F2 | G4 | G3 G | A2 A2 | c2 A2 | G4- | G2 C2 | C2 C2 | E2 F2 | G4 | %12
 G3 G | A2 A2 | c2 A2 | G4- | G2 G2 | c2 d2 | e2 d2 | c4 | G3 G | A2 A2 | c2 A2 | G4- | G2 FG | %25
 A2 A2 | =B2 c2 | d4 | =B3 G | G2 G2 | e2 d2 | c4 | z2 FG | A4 | A2 BA | A4 | G2 DE | F2 F2 | %38
 E2 F2 | G4- | G2 FG | A4 | A2 BA | A4 | G2 DE | F2 F2 | E2 D2 | C4- | C2 z2 |] %49

